X: 15210
T: Gin Ye Were Dead Gude-Man
R: hornpipe
M: 4/4
K: Fmajor
F2 F2 c2 F2|A2 G2 GBAG|F2 F2 c2 F2|A2 f2 c3 f|
fefc ABcA|fdcA G2 AG|F2 f2 cdBc|A2 F2 F2:|
fefg fgaf|gfga agfd|cdfg fgag|fgfc ABcA|
defc ABcA|fdcA G2 AG|F2 f2 cdBc|A2 F2 F2:|

